X: 1
T: From-Olles tolva   (From-Olle's 12th)
T: Polska i G efter From-Olle
R: polska
A: H\"alsingland
Z: id:hn-jp-14
F: http://norbeck.nu/abc/s/hnjp0.abc
M: 3/4
L: 1/16
K: G
z2 |\
"G"d3g b4 b4 | d2Bd "D7"c2Ac "G"B2G2 |\
d3g g2b2 b2g2 | "G"edBd "D7"dcAc "G"B2G2 ||\
"D7"D4 c3B A2G2 | F3E D2C2 B,2A,2 |
"G"G,A,B,C DEFG "D7"A2c2 | BAGF "G"G6 :: B2 |\
"G"d2BG DGBd c2B2 | "D7"c2AF DFAc B2A2 |
"C"e4 "G"d3{ed}B "D7"c2A2 | "Em"G3B "A7"AGFE "D7"D4 ||\
"G"d2BG DGBd c2B2 | "D7"c2AF DFAc B2A2 |
"Em"GABc d2e2 "D7"f2d2 | "G"g3{a}g "D7"fefa "G"g4 ||\
"G"G2AB "C"c2ed "(D)"cBAG | "D7"FGAF "G"G6 :|
